X:1
T: The Bridge of Dee
C:J. Young
R:Reel
Q: 232
K:D
M:4/4
L:1/8
|:A,|D2FD A,D FD|GB AF E1/2E1/2E EF|D2FD A,D FD|GB AF D1/2D1/2D DA,|
D2FD A,D FD|GB AF E1/2E1/2E EF|D2FD A,D FD|GB AF D1/2D1/2D DE|
Dd cd Bc dB|AB AF EF GE|DF Ad Bd eg|fe dc d1/2d1/2d de|
fe dc Bc dB|AB AF EF GE|DF Ad Bd eg|fe dc d1/2d1/2d d:|
